X:1
T:Ich klag den Tag und alle stund
T:Ich klag den Tag und alle stund
T:Thomas Stoltzer 1480-1526
C:Thomas Stoltzer 1480-1526
%%score 1 2
L:1/8
Q:1/2=80
M:2/2
K:C
V:1 treble 
V:2 treble 
V:1
 c4 c4 | B4 BGAB | c4 c2 B2 | A4 A4 | G8 | z4 GFEG | F4 F4 | E8 | z4 E4 | D4 D2 E2 | ^F2 G4 F2 | %11
 G8 | z4 EDEF | G4 F4 | E8 | z4 G4 | G6 G2 | A4 c4 | B2 BA GF E2- | EEDC D4 | C8 |] %21
V:2
 c4 c4 | G4 G4 | cBcd c2 G2 | A4 F4 | G8 | z4 G4 | D4 F4 | C8 | z4 C4 | G2 GA B2 c2 | A2 G2 A4 | %11
 G8 | z4 A4 | G4 D4 | E8 | z4 E4 | E4 E4 | A4 A4 | G4 E2 G2 | G4 G4 | C8 |] %21

